fs/arrow_join_20_filled.svg

<svg viewBox="0 0 20 20" fill="none" xmlns="http://www.w3.org/2000/svg" height="1em" width="1em">
  <path d="M4.5 2C4.77614 2 5 2.22386 5 2.5C5 6.12386 7.87614 9 11.5 9H12.2929L11.1464 7.85355C10.9512 7.65829 10.9512 7.34171 11.1464 7.14645C11.3417 6.95118 11.6583 6.95118 11.8536 7.14645L13.8536 9.14645C14.0488 9.34171 14.0488 9.65829 13.8536 9.85355L11.8536 11.8536C11.6583 12.0488 11.3417 12.0488 11.1464 11.8536C10.9512 11.6583 10.9512 11.3417 11.1464 11.1464L12.2929 10H11.5C7.87614 10 5 12.8761 5 16.5C5 16.7761 4.77614 17 4.5 17C4.22386 17 4 16.7761 4 16.5C4 13.2869 5.96758 10.5784 8.77707 9.5C5.96758 8.42162 4 5.71307 4 2.5C4 2.22386 4.22386 2 4.5 2ZM10.0317 11.1926C8.78328 11.5291 7.72048 12.2867 7 13.3087V14C7 15.1046 7.89543 16 9 16H15C16.1046 16 17 15.1046 17 14V5C17 3.89543 16.1046 3 15 3H9C7.89543 3 7 3.89543 7 5V5.69127C7.72048 6.71331 8.78328 7.47093 10.0317 7.80741C9.93192 7.32878 10.0678 6.81086 10.4393 6.43934C11.0251 5.85355 11.9749 5.85355 12.5607 6.43934L14.5607 8.43934C15.1464 9.02513 15.1464 9.97487 14.5607 10.5607L12.5607 12.5607C11.9749 13.1464 11.0251 13.1464 10.4393 12.5607C10.0678 12.1891 9.93192 11.6712 10.0317 11.1926Z" fill="#212121"/>
</svg>

<svg viewBox="0 0 20 20" fill="none" xmlns="http://www.w3.org/2000/svg" height="1em" width="1em">
  <path d="M4.5 2a.5.5 0 0 1 .5.5C5 6.124 7.876 9 11.5 9h.793l-1.147-1.146a.5.5 0 0 1 .708-.708l2 2a.5.5 0 0 1 0 .708l-2 2a.5.5 0 0 1-.708-.708L12.293 10H11.5A6.457 6.457 0 0 0 5 16.5a.5.5 0 0 1-1 0 7.453 7.453 0 0 1 4.777-7A7.453 7.453 0 0 1 4 2.5a.5.5 0 0 1 .5-.5Zm5.532 9.193A5.434 5.434 0 0 0 7 13.309V14a2 2 0 0 0 2 2h6a2 2 0 0 0 2-2V5a2 2 0 0 0-2-2H9a2 2 0 0 0-2 2v.691a5.433 5.433 0 0 0 3.032 2.116A1.499 1.499 0 0 1 12.56 6.44l2 2a1.5 1.5 0 0 1 0 2.122l-2 2a1.5 1.5 0 0 1-2.53-1.368Z" fill="#212121"/>
</svg>
